X:1
T:Stelutis alpinis
T:Stelutis alpinis
T:armonizzazione: Mario Macchi
C:armonizzazione: Mario Macchi
%%score [ 1 2 3 4 ]
L:1/8
Q:1/4=120
M:4/4
K:F
V:1 treble-8 nm="Tenor 1"
V:2 treble-8 nm="Tenor 2"
V:3 bass nm="Baritone"
V:4 bass nm="Bass"
V:1
 d8 | d4 G4 | A4 (d3 c | B6 B2) | A8 | z8 | z8 | z2 D2 (DEFG | A2 BABc d2- | d2) c2 d4 | z8 | %11
w: Sub|tu- um|prae- si- *|* di-|um|||con- fu- * * *||* gi- mus,||
 z2 d4 c2 | B2 A2 (G2 F2 | _ED G4) ^F2 | G4 z2 d2- | d2 c2 B2 A2 | (G2 F2 _E2) E2 | D4 z2 d2- | %18
w: san- cta|De- i Ge- *|* * * ni-|trix, san-|* cta De- i|Ge- * * ni-|trix, no-|
 d2 d2 B3 A | G2 ^F2 G4 | d4 d3 c | B2 B2 A4- | A4 D4 | z2 d4 d2 | B2 A2 B3 G | A4 G4 | d6 B2 | %27
w: * stras de- pre-|ca- ti- o-|nes, de- pre-|ca- ti- o-|* nes,|no- stras|de- pre- ca- ti-|o- nes,|ne de-|
 B4 c4 | d2 B4 A2 | B2 A2 d2 d2 | c4 z2 d2- | d2 c2 d2 c2- | c2 B4 A2 | (B3 c d4- | d8- | %35
w: spi- ci-|as in ne-|ces- si- ta- ti-|bus, in|_ ne- ces- si-|* ta- ti-|bus, _ _|_|
 d4) z2 d2 | d2 d2 c3 A | B2 (d4 cB | A3 G A2 B2 | A2 G4 ^F2) | (G3 A B3 c | d4) z4 | z4 z2 d2- | %43
w: * sed|a pe- ri- cu-|lis cun- * *|||ctis _ _ _|_|li-|
 dd d2 c4 | B4 (B4 | G4 G3 A | BABc d4) | z4 G4 | A2 B2 A2 (d2- | d2 ^c2) d4- | d4 z4 | %51
w: * be- ra nos|sem- per,|_ _ _||Vir-|go glo- ri- o-|* * sa|_|
 z2 A2 B2 c2 | (dcBA GF B2 | A4) G2 =E2 | (^F2 G4) F2 | G4 D4- | D4 z2 G2 | A2 B2 c2 (d2- | %58
w: et be- ne-|di- * * * * * *|* cta, et|be- * ne-|di- cta,|* Vir-|go glo- ri- o-|
 d2 ^c2 d4- | d4 G4) | A8 | z8 | z8 | z2 G2 A2 B2 | c4 B2 B2 | c2 d2 (_e2 d2- ||[M:2/4] d2 c2) || %67
w: ||sa|||et be- ne-|di- cta, et|be- ne- di- *||
[M:4/4] d8- | !fermata!d8 |] %69
w: cta.|_|
V:2
 A8 | =B4 c4- | c2 A4 (_B2 | BAG^F G2 G2) | ^F4 z2 D2 | (DEFG AGAB | c2 d3 cBA | B2) B2 A2 d2 | %8
w: Sub|tu- um|_ prae- si-|* * * * * di-|um con-|fu- * * * * * * *||* gi- mus, con-|
 (d3 c BA AG/F/ | G2) G2 A2 d2- | d2 c2 B2 A2 | (GF F_E/D/ E2) E2 | D4 z4 | z8 | z2 G2 F2 B2 | %15
w: fu- * * * * * *|* gi- mus, san-|* cta De- i,|Ge- * * * * * ni-|trix,||san- cta De-|
 A2 G2 d4 | c2 B2 c4 | B4 A4 | z2 d4 d2 | B2 A2 B2 B2 | (GFGA B2 A2- | AG G4) (^FE | ^F2) d4 d2 | %23
w: i san- cta|De- i Ge-|ni- trix,|no- stras|de- pre- ca- ti-|o- * * * * *|* * * nes, _|_ no- stras|
 B2 A2 G2 G2 | d4 d4 | z2 d4 c2 | B2 A2 (G3 F | GA B4 A2 | B2) d4 c2 | d2 c4 B2- | B2 A2 B4 | z8 | %32
w: de- pre- ca- ti-|o- nes,|ne de-|spi- ci- as _|_ _ _ _|* in ne-|ces- si- ta-|* ti- bus,||
 z8 | z2 G4 ^F2 | G2 F2 B2 B2 | A4 z2 D2 | =F2 G2 A3 F | G2 (B4 AG | F3 D E2 F2- | F_E D2 E2 C2 | %40
w: |in ne-|ces- si- ta- ti-|bus, sed|a pe- ri- cu-|lis cun- * *|||
 D4) G4 | z2 d3 d d2 | (c4 B2) (A2- | AG G4 ^F2 | G6 F2 | _E4) D4 | z2 G2 A2 B2 | A2 d4 ^c2 | %48
w: * ctis|li- be- ra|nos _ sem-|||* per,|Vir- go glo-|ri- o- *|
 d4 z4 | G4 A2 B2 | A2 (d4 ^c2) | d4 z4 | z8 | z4 z2 G2 | A2 B2 c4 | (B3 c d4) | z4 G4 | F2 D2 F4 | %58
w: sa|Vir- go glo-|ri- o- *|sa||et|be- ne- di-|cta, _ _|Vir-|go glo- ri-|
 E4 D4 | z2 D2 E2 G2- | G2 F2 z2 F2 | G2 A2 (BAGF | _ED F4 ^F2) | G4 z4 | z4 z2 G2 | %65
w: o- sa|glo- ri- o-|* sa et|be- ne- di- * * *||cta,|et|
 A2 B2 GA (B2- ||[M:2/4] BA G2- ||[M:4/4] G2 ^FE) F4 | !fermata!G8 |] %69
w: be- ne- di- * *|||cta.|
V:3
 ^F,8 | G,4 E,4 | E,2 F,4 F,2 | (G,4 D,4) | z2 D,2 (D,E,=F,G, | A,G,A,B, C3 B,) | %6
w: Sub|tu- um|prae- si- di-|um _|con- fu- * * *||
 A,F, B,3 A,G,^F, | G,2 G,2 =F,4 | z8 | z2 G,4 F,2 | B,2 A,2 (D2 C2 | B,A, A,G,/F,/ G,2 G,2) | %12
w: |* gi- mus,||san- cta|De- i Ge- *|* * * * * * ni-|
 D4 z4 | z4 z2 C2- | C2 B,2 A,2 G,2 | F,2 _E,2 D,4 | z2 F,2 G,2 (A,2- | A,G, G,4 ^F,E, | %18
w: trix,|san-|* cta De- i|Ge- ni- trix,|De- i Ge-||
 ^F,2) F,2 G,4 | D6 D2 | B,3 A, G,2 ^F,2 | G,4 D4- | D4 z2 D2- | D2 D2 B,3 A, | G,2 ^F,2 G,4 | %25
w: * ni- trix,|no- stras|de- pre- ca- ti-|o- nes,|_ no-|* stras de- pre-|ca- ti- o-|
 D,4 z2 G,2- | G,2 F,2 (B,3 A, | G,2 F,2 _E,2) E,2 | F,8 | z8 | z4 z2 B,2- | B,2 A,2 B,2 A,2 | %32
w: nes, ne|_ de- spi- *|* * * ci-|as||in|_ ne- ces- si-|
 D2 D2 C4 | z2 B,4 A,2 | B,2 A,4 G,2- | G,2 ^F,2 F,4 | z8 | z8 | z4 z2 D2 | D2 D2 C3 A, | %40
w: ta- ti- bus,|in ne-|ces- si- ta-|* ti- bus,|||sed|a pe- ri- cu-|
 B,2 (D3 CB,A, | B,4) A,4 | z8 | z8 | z2 D3 D D2 | C4 (B,3 C | D4) D,4- | D,4 z2 G,2 | %48
w: lis cun- * * *|* ctis|||li- be- ra|nos sem- *|* per,|_ Vir-|
 F,2 D,2 F,4 | E,4 D,4- | D,4 z4 | z2 ^F,2 G,2 A,2 | (B,A,G,F, _E,D, G,2- | G,2 ^F,2) G,4 | z8 | %55
w: go glo- ri-|o- sa|_|et be- ne-|di- * * * * * *|* * cta,||
 z2 G,2 A,2 B,2 | A,2 (D4 ^C2) | D8 | G,4 A,2 B,2 | A,2 (D4 ^C2) | D4 z2 A,2 | B,2 C2 (DCB,A, | %62
w: Vir- go glo-|ri- o- *|sa|Vir- go glo-|ri- o- *|sa et|be- ne- di- * * *|
 G,F, B,2 A,4) | G,2 =E,2 (^F,2 G,2- | G,2) ^F,2 G,4 | =F,4 z2 F,2 ||[M:2/4] G,2 G,2 || %67
w: |cta, et be- *|* ne- di-|cta, et|be- ne-|
[M:4/4] A,8 | !fermata!=B,8 |] %69
w: di-|cta.|
V:4
 D,8 | G,,4 C,4 | A,,2 (D,3 C,B,,A,, | G,,6) G,,2 | D,8 | z8 | z4 G,,4 | (G,,A,,B,,C, D,C,D,E, | %8
w: Sub|tu- um|prae- si- * * *|* di-|um||con-|fu- * * * * * * *|
 F,2 G,3 F, F,_E,/D,/ | _E,2) E,2 D,4 | z8 | z4 z2 G,2- | G,2 F,2 _E,2 D,2 | %13
w: |* gi- mus,||san-|* cta De- i|
 (C,B,, B,,A,,/G,,/ A,,2) A,,2 | G,,4 z4 | z2 G,4 F,2 | _E,2 D,2 C,2 A,,2 | (B,,3 C, D,4- | %18
w: Ge- * * * * * ni-|trix,|san- cta|De- i Ge- ni-|trix, _ _|
 D,4 G,,4) | z8 | z8 | z4 D,4- | D,2 D,2 B,,3 A,, | G,,2 ^F,,2 (G,,3 A,, | B,,C, D,2) G,,2 G,2- | %25
w: _ _|||no-|* stras de- pre-|ca- ti- o- *|* * * nes, ne|
 G,2 F,2 _E,2 E,2 | D,4 z2 _E,2- | E,2 D,2 C,2 C,2 | B,,4 z4 | z2 F,4 D,2 | _E,2 F,2 G,2 G,2 | %31
w: _ de- spi- ci-|as ne|_ de- spi- ci-|as|in ne-|ces- si- ta- ti-|
 F,6 F,2- | F,2 D,2 _E,2 F,2 | (B,,A,,G,,A,, B,,C, D,2 | G,,2 D,2 B,,3) C, | D,8 | z8 | %37
w: bus, in|_ ne- ces- si-|ta- * * * * * *|* * * ti-|bus,||
 z2 G,,2 B,,2 C,2 | D,3 B,, C,2 (D,2- | D,C, B,,2 A,,4) | G,,4 z2 G,2- | G,G, G,2 F,4- | %42
w: sed a pe-|ri- cu- lis cun-||ctis li-|* be- ra nos|
 F,2 _E,2 (D,3 C, | B,,2 A,,G,, A,,4) | (G,,3 A,, B,,4 | C,4 G,,4) | z2 G,2 F,2 D,2 | F,4 E,4 | %48
w: _ _ sem- *||per, _ _|_ _|Vir- go glo-|ri- o-|
 D,8 | z2 G,2 F,2 D,2 | F,4 E,4 | D,4 z4 | z4 z2 B,,2 | C,2 D,2 (_E,D,C,B,, | A,,2 G,,2 A,,4) | %55
w: sa|Vir- go glo-|ri- o-|sa|et|be- ne- di- * * *||
 G,,2 G,2 F,2 D,2 | F,4 E,4 | D,8 | z2 G,2 F,2 D,2 | F,4 E,4 | D,8 | z8 | z2 B,,2 C,2 D,2 | %63
w: cta, Vir- go glo-|ri- o-|sa|Vir- go glo-|ri- o-|sa||et be- ne-|
 (_E,D,C,B,, A,,2 G,,2 | A,,4) G,,4 | z2 B,,2 C,2 D,2 ||[M:2/4] (_E,4 ||[M:4/4] D,8) | %68
w: di- * * * * *|* cta,|et be- ne-|di-||
 !fermata!G,,8 |] %69
w: cta.|

